X:18757
T:Widow's Daughter
R:Reel
S:(Paddy Ryan)
H:
N:
D:
Z:Adrian Scahill
M:4/4
L:1/8
K:D
DFed B3c|dBB2 dBAF|DFed (3BcB Ad|fdec dBAF|\
DBB2 dBB2|DBB2 dBAF|(3ABA FB ABde|fdec dBA2||\
faa2 fdde|fdad BAA2|faa2 bfaf|1 egfe dBA2:|2 egfe dBAF||


